X:148
T:Knights of the Garter
M:2/4
L:1/8
B:Thompson's Compleat Collection of 200 Favourite Country Dances, vol. 3 (London, 1773)
Z:Transcribed and edited by Flynn Titford-Mock, 2007
Z:abc's:AK/Fiddler's Companion
K:G
G>A B2 | A>B c2 | BA/G/ AG/F/ | G[DG][B,d][G,g] | G>A B2 | A>B c2 | B/c/d/B/ A/B/c/A/ | G2 [G,2G2] :|
|: B>c d2 | c>d e2 | B>c dc/B/ | cAfa | B>c d2 | c>d e2 | B/c/d?B/ A/B/c/A/ | G2 [G,2G2] :|

